assets/build/img/production-order.svg

<svg width="20" height="20" viewBox="0 0 20 20" fill="none" xmlns="http://www.w3.org/2000/svg">
<path d="M4.62058 8.06918H3.86163V4.86324L4.86327 3.8616H15.1368L16.1384 4.86324V8.06918H15.3795V9.24105H17.3103V4.37781L15.6222 2.68973H11.9309V0H8.06921V2.68973H4.37784L2.68976 4.37781V9.24105H4.62058V8.06918Z" fill="#00642F"/>
<path d="M0 14.6201V17.3098H2.01914C1.9191 17.5429 1.86352 17.7995 1.86352 18.0688C1.86352 18.338 1.9191 18.5946 2.01914 18.8277H0V19.9996H20V18.8277H17.9809C18.0809 18.5946 18.1365 18.3381 18.1365 18.0688C18.1365 17.7995 18.0809 17.5429 17.9809 17.3098H20V14.6201H0ZM5.56949 18.8277C5.66953 18.5946 5.72512 18.3381 5.72512 18.0688C5.72512 17.7995 5.66953 17.5429 5.56949 17.3098H8.2698C8.16977 17.5429 8.11418 17.7995 8.11418 18.0688C8.11418 18.338 8.16977 18.5946 8.2698 18.8277H5.56949ZM11.8202 18.8277C11.9202 18.5946 11.9758 18.3381 11.9758 18.0688C11.9758 17.7995 11.9202 17.5429 11.8202 17.3098H14.4305C14.3305 17.5429 14.2749 17.7995 14.2749 18.0688C14.2749 18.338 14.3305 18.5946 14.4305 18.8277H11.8202Z" fill="#00642F"/>
<path d="M10.759 7.6359V5.37988H9.24109V7.6359L10 7.19773L10.759 7.6359Z" fill="#00642F"/>
<path d="M5.37946 5.37988V13.4491H14.6205V5.37988H11.9308V9.66566L9.99999 8.55089L8.06918 9.66566V5.37988H5.37946Z" fill="#00642F"/>
</svg>

<svg width="20" height="20" viewBox="0 0 20 20" fill="none" xmlns="http://www.w3.org/2000/svg"><path d="M4.62 8.07h-.758V4.862l1.001-1.001h10.274l1.001 1.001V8.07h-.759v1.172h1.931V4.378L15.622 2.69h-3.691V0H8.069v2.69H4.378L2.69 4.378V9.24h1.93V8.069zM0 14.62v2.69h2.02a1.92 1.92 0 000 1.518H0V20h20v-1.172h-2.02a1.92 1.92 0 000-1.518H20v-2.69H0zm5.57 4.208a1.92 1.92 0 000-1.518h2.7a1.92 1.92 0 000 1.518h-2.7zm6.25 0a1.92 1.92 0 000-1.518h2.61a1.92 1.92 0 000 1.518h-2.61z" fill="#00642F"/><path d="M10.759 7.636V5.38H9.241v2.256L10 7.198l.759.438z" fill="#00642F"/><path d="M5.38 5.38v8.07h9.24V5.38h-2.69v4.286L10 8.55 8.07 9.666V5.38H5.38z" fill="#00642F"/></svg>
